static/img/homepage/biz-expo.svg

<svg width="85" height="85" viewBox="0 0 85 85" fill="none" xmlns="http://www.w3.org/2000/svg">
<rect width="85" height="85" fill="white"/>
<path d="M17 25.6286C17 24.7783 17.4324 23.9862 18.1477 23.5264L33.1426 13.8868C33.9658 13.3576 35.0222 13.3576 35.8454 13.8868L50.8403 23.5264C51.5556 23.9862 51.988 24.7783 51.988 25.6286V65.5001C51.988 66.8804 50.8691 67.9993 49.4889 67.9993H19.4991C18.1189 67.9993 17 66.8804 17 65.5001V25.6286Z" fill="#B4CFF6"/>
<rect x="21.998" y="31.7622" width="14.9949" height="4.99829" rx="2.49915" fill="white"/>
<rect x="21.998" y="43.0085" width="14.9949" height="4.99829" rx="2.49915" fill="white"/>
<rect x="21.998" y="54.2546" width="14.9949" height="4.99829" rx="2.49915" fill="white"/>
<path d="M44.4912 35.5111L42.892 34.5335L42.6169 34.9836V35.5111V66.7504C42.6169 68.4757 44.0155 69.8744 45.7408 69.8744H46.9904C48.7157 69.8744 50.1143 68.4757 50.1143 66.7504V54.0626C50.6281 53.9698 51.1501 53.9179 51.6763 53.9179C54.2471 53.9179 56.487 54.5741 57.9294 55.4007C59.9986 56.5864 62.8937 57.3786 66.0463 57.3786C69.0685 57.3786 71.7164 56.1427 73.5002 55.1665C74.5141 54.6116 75.1057 53.5536 75.1057 52.444V36.2929C75.1057 33.8236 72.5142 32.5112 70.5268 33.4464C69.1395 34.0993 67.6115 34.5984 66.0463 34.5984C63.4754 34.5984 61.2356 33.9421 59.7932 33.1156C57.724 31.9298 54.8289 31.1376 51.6763 31.1376C48.6817 31.1376 46.0501 32.2824 44.2354 33.2589C43.772 33.5083 43.4442 33.8332 43.2512 34.053C43.1489 34.1695 43.0682 34.2752 43.0099 34.3567C42.9805 34.3978 42.956 34.434 42.9364 34.4637C42.9266 34.4785 42.918 34.4919 42.9106 34.5036L42.9004 34.5199L42.896 34.527L42.8939 34.5304L42.8929 34.532L42.8924 34.5328C42.8922 34.5331 42.892 34.5335 44.4912 35.5111Z" fill="#176BE8" stroke="white" stroke-width="3.74872"/>
</svg>

<svg width="85" height="85" fill="none" xmlns="http://www.w3.org/2000/svg"><path fill="#fff" d="M0 0h85v85H0z"/><path d="M17 25.629a2.5 2.5 0 011.148-2.103l14.995-9.64a2.5 2.5 0 012.702 0l14.995 9.64a2.5 2.5 0 011.148 2.103V65.5a2.5 2.5 0 01-2.5 2.5H19.5a2.5 2.5 0 01-2.5-2.5V25.63z" fill="#B4CFF6"/><rect x="21.998" y="31.762" width="14.995" height="4.998" rx="2.499" fill="#fff"/><rect x="21.998" y="43.008" width="14.995" height="4.998" rx="2.499" fill="#fff"/><rect x="21.998" y="54.255" width="14.995" height="4.998" rx="2.499" fill="#fff"/><path d="M44.491 35.511l-1.599-.978-.275.45v31.769a3.124 3.124 0 003.124 3.123h1.25a3.124 3.124 0 003.123-3.124V54.063a8.786 8.786 0 011.562-.145c2.571 0 4.811.656 6.253 1.483 2.07 1.185 4.965 1.978 8.117 1.978 3.022 0 5.67-1.236 7.454-2.212a3.1 3.1 0 001.606-2.723V36.293c0-2.47-2.592-3.782-4.58-2.847-1.386.653-2.914 1.152-4.48 1.152-2.57 0-4.81-.656-6.253-1.482-2.069-1.186-4.964-1.978-8.117-1.978-2.994 0-5.626 1.144-7.44 2.12-.464.25-.792.575-.985.795a3.914 3.914 0 00-.34.45l-.01.017-.005.007-.002.003-.001.002h0c0 .001-.001.002 1.598.98z" fill="#176BE8" stroke="#fff" stroke-width="3.749"/></svg>
